!!!COM: Bach, Johann Sebastian
!!!CDT: 1685/3//-1750/7/28/
!!!OTL@@DE: Lobt Gott, ihr Christen, allzugleich
!!!AGN: 4-Part Chorale
!!!SCT: BH 054
!!!SCT: BWV 151
**harm	**root	**kern	**kern	**kern	**kern
!	!	!bass	!tenor	!alto	!soprno
*	*Iorgan	*Iorgan	*Iorgan	*Iorgan	*Iorgan
*	*	*clefF4	*clefF4	*clefG2	*clefG2
*k[b-e-a-]	*k[b-e-a-]	*k[b-e-a-]	*k[b-e-a-]	*k[b-e-a-]	*k[b-e-a-]
*E-:	*E-:	*E-:	*E-:	*E-:	*E-:
*M4/4	*M4/4	*M4/4	*M4/4	*M4/4	*M4/4
*met(c)	*met(c)	*met(c)	*met(c)	*met(c)	*met(c)
*MM60	*MM60	*MM60	*MM60	*MM60	*MM60
I	4GG	4E-	4G	4B-	4e-
=1	=1	=1	=1	=1	=1
Vb	4DD	4D	4F	8B-	4b-
.	.	.	.	8c	.
V7	4DD	4BB-	8B-	4d	4b-
.	.	.	8A-	.	.
I	4GG	8E-	8G	4e-	4b-
.	.	8F	8A-	.	.
Ib	4GG	4G	4B-	4e-	4b-
=2	=2	=2	=2	=2	=2
IV	4CC	4AA-	8A-	4e-	4cc
.	.	.	8G	.	.
V7	4DD	4BB-	8F	4d	8b-
.	.	.	8B-	.	8a-
I;	4GG;	4E-;	4B-;	4e-;	4g;
Vb	4DD	4D	4B-	4f	4f
=3	=3	=3	=3	=3	=3
vi	4EE	4C	4E-	4e-	8g
.	.	.	.	.	8a
V	4DD	4BB-	4F	4d	4b-
vib	4EE	4E-	4G	8c	4cc
.	.	.	.	8d	.
V7/V	4AA	4F	4A	4e-	4cc
=4	=4	=4	=4	=4	=4
V;	2DD;	2BB-;	2F	2d;	2b-;
r	4r	4r	4r	4r	4r
V7b	4DD	4D	8B-	4f	4b-
.	.	.	8A-	.	.
=5	=5	=5	=5	=5	=5
I	4GG	4E-	4G	4e-	4b-
V7c	4DD	4F	4A-	4d	4b-
Ib	4GG	4G	4B-	4e-	4b-
vi	4EE	4C	4c	4e-	8g
.	.	.	.	.	8a-
!!linebreak: 2
=6	=6	=6	=6	=6	=6
Ib	4GG	4GG	4B-	4e-	4b-
iib	4AA	4AA-	4c	8f	8a-
.	.	.	.	8e-	8g
V;	4DD;	4BB-;	4F;	4d;	4f;
iii	4BB	4GG	4G	4d	4b-
=7	=7	=7	=7	=7	=7
IV7	8CC	8C	8G	8e-	4a-
viio	8FF#	8D	8F	4f	.
I	4GG	4E-	8G	.	4g
.	.	.	8A-	[8e-	.
V	4DD	4BB-	4B-	8e-]	4f
.	.	.	.	8c	.
viio7/VI	4DD#	4BB	4A-	4d	4f
=8	=8	=8	=8	=8	=8
vi	2EE	8C	4G	2e-	8e-
.	.	8D	.	.	8f
.	.	8E-	4c	.	8g
.	.	8F	.	.	8a-
iii;	4BB;	4G;	4B-;	4d;	4b-;
I	4GG	4E-	4G	4e-	4b-
=9	=9	=9	=9	=9	=9
IVb	4CC	4C	8A-	4e-	4a-
.	.	.	8B-	.	.
vi7d	4EE	8BB-	4c	4e-	8g
.	.	8AA-	.	.	8f
Ic	4GG	4BB-	4B-	4e-	4g
V7	4DD	4BB-	8B-	4d	4f
.	.	.	8A-	.	.
=10	=10	=10	=10	=10	=10
I;	2.GG;	2.EE-;	2.G;	2.B-;	2.e-;
==	==	==	==	==	==
*-	*-	*-	*-	*-	*-
!!chor2scor: -l 2 -s 0.6 -o %b.pmx
!!!YEC: Copyright 2001 by Craig Stuart Sapp
!!!license: GNU General Public License (http://www.gnu.org/copyleft/gpl.html)
!!!SMA: 371 Bach Chorales, edited by Ludwig Erk, C.F. Peters
!!!PDT: 1850, 1865
!!!ONB: Harmony and Root analysis done manually by Craig Sapp
